suite-common/icons/assets/icons/questionMark.svg

<svg xmlns="http://www.w3.org/2000/svg" fill="none" viewBox="0 0 16 16">
  <path fill="#333" fill-rule="evenodd" d="M7.52 2.028a3.63 3.63 0 0 0-2.136 1.005c-.302.29-.5.539-.684.86-.157.275-.336.684-.318.73.012.032 1.693.754 1.707.734.004-.006.04-.095.08-.199a2.6 2.6 0 0 1 .542-.83c.149-.147.252-.22.442-.314.334-.165.56-.21.967-.192.515.022.88.165 1.173.458.455.455.564 1.171.272 1.786-.134.281-.345.522-1.073 1.227-.369.358-.742.746-.845.879-.333.431-.52.909-.58 1.481a5 5 0 0 0-.01.89l.017.124h1.913v-.22c0-.35.052-.82.111-.993.059-.175.211-.449.341-.614.046-.059.339-.365.65-.68 1.135-1.15 1.448-1.669 1.538-2.547a3.5 3.5 0 0 0-.442-1.992c-.321-.539-.902-1.035-1.521-1.299a4.4 4.4 0 0 0-.891-.254 6 6 0 0 0-1.253-.04m.267 9.988c-.536.099-.983.528-1.091 1.045a1.35 1.35 0 0 0 1.032 1.576c.444.093.881-.041 1.207-.368.417-.418.511-1.001.25-1.541-.135-.277-.422-.527-.744-.646a1.8 1.8 0 0 0-.654-.066"/>
</svg>

<svg xmlns="http://www.w3.org/2000/svg" fill="none" viewBox="0 0 16 16"><path d="M7.520 2.028 C 6.685 2.130,5.979 2.462,5.384 3.033 C 5.082 3.323,4.884 3.572,4.700 3.893 C 4.543 4.168,4.364 4.577,4.382 4.623 C 4.394 4.655,6.075 5.377,6.089 5.357 C 6.093 5.351,6.129 5.262,6.169 5.158 C 6.278 4.874,6.494 4.543,6.711 4.328 C 6.860 4.181,6.963 4.108,7.153 4.014 C 7.487 3.849,7.713 3.804,8.120 3.822 C 8.635 3.844,9.000 3.987,9.293 4.280 C 9.748 4.735,9.857 5.451,9.565 6.066 C 9.431 6.347,9.220 6.588,8.492 7.293 C 8.123 7.651,7.750 8.039,7.647 8.172 C 7.314 8.603,7.127 9.081,7.067 9.653 C 7.037 9.944,7.032 10.362,7.057 10.543 L 7.074 10.667 8.030 10.667 L 8.987 10.667 8.987 10.447 C 8.987 10.097,9.039 9.627,9.098 9.454 C 9.157 9.279,9.309 9.005,9.439 8.840 C 9.485 8.781,9.778 8.475,10.089 8.160 C 11.224 7.010,11.537 6.491,11.627 5.613 C 11.692 4.970,11.516 4.177,11.185 3.621 C 10.864 3.082,10.283 2.586,9.664 2.322 C 9.415 2.217,9.087 2.123,8.773 2.068 C 8.471 2.015,7.799 1.993,7.520 2.028 M7.787 12.016 C 7.251 12.115,6.804 12.544,6.696 13.061 C 6.549 13.768,7.021 14.490,7.728 14.637 C 8.172 14.730,8.609 14.596,8.935 14.269 C 9.352 13.851,9.446 13.268,9.185 12.728 C 9.050 12.451,8.763 12.201,8.441 12.082 C 8.286 12.025,7.933 11.989,7.787 12.016 " fill="#333" stroke="none" fill-rule="evenodd"></path></svg>
